public/formular-icons/english/upper-u.svg

<svg style="vertical-align:-.05ex" xmlns="http://www.w3.org/2000/svg" width="1.735ex" height="1.595ex" viewBox="0 -683 767 705" xmlns:xlink="http://www.w3.org/1999/xlink"><defs><path id="a" d="M107 637q-34 0-36 4-1 2-1 8 0 24 11 33 2 1 17 1 41-2 136-2h63q29 0 45 1t20 0q16 0 16-10 0-2-2-14-5-17-10-20h-14q-4 0-9-1t-9 0q-39-1-50-3t-18-11q-1-2-28-105t-54-216-30-133q-2-14-2-29 0-54 31-85t86-31q67 0 134 45t98 136l51 201q47 192 47 200 0 27-64 31-24 0-24 11 0 2 2 12 4 16 6 19t10 4q3 0 32-1t84-2q51 0 78 1t29 1q15 0 15-10 0-22-8-30-3-5-22-5-71-4-89-40-2-5-50-193-41-169-50-199-33-100-115-163T263-22q-92 0-147 56T60 167v16q0 18 55 238 49 201 49 207 0 7-57 9Z"/></defs><g stroke="currentColor" fill="currentColor" stroke-width="0"><use data-c="1D448" xlink:href="#a" transform="scale(1 -1)"/></g></svg>

<svg style="vertical-align: -0.05ex" xmlns="http://www.w3.org/2000/svg" width="1.735ex" height="1.595ex" role="img" focusable="false" viewBox="0 -683 767 705" xmlns:xlink="http://www.w3.org/1999/xlink"><defs><path id="MJX-72-TEX-I-1D448" d="M107 637Q73 637 71 641Q70 643 70 649Q70 673 81 682Q83 683 98 683Q139 681 234 681Q268 681 297 681T342 682T362 682Q378 682 378 672Q378 670 376 658Q371 641 366 638H364Q362 638 359 638T352 638T343 637T334 637Q295 636 284 634T266 623Q265 621 238 518T184 302T154 169Q152 155 152 140Q152 86 183 55T269 24Q336 24 403 69T501 205L552 406Q599 598 599 606Q599 633 535 637Q511 637 511 648Q511 650 513 660Q517 676 519 679T529 683Q532 683 561 682T645 680Q696 680 723 681T752 682Q767 682 767 672Q767 650 759 642Q756 637 737 637Q666 633 648 597Q646 592 598 404Q557 235 548 205Q515 105 433 42T263 -22Q171 -22 116 34T60 167V183Q60 201 115 421Q164 622 164 628Q164 635 107 637Z"></path></defs><g stroke="currentColor" fill="currentColor" stroke-width="0" transform="scale(1,-1)"><g data-mml-node="math"><g data-mml-node="mi"><use data-c="1D448" xlink:href="#MJX-72-TEX-I-1D448"></use></g></g></g></svg>
